dist/assets/img/svgIcons/spare_parts_icon.svg

<svg width="85" height="98" viewBox="0 0 85 98" fill="none" xmlns="http://www.w3.org/2000/svg">
<path d="M37.5057 2.87905C40.5968 1.09712 44.4032 1.09713 47.4943 2.87906L79.9943 21.6143C83.0915 23.3998 85 26.7029 85 30.2779V67.7221C85 71.2971 83.0915 74.6002 79.9943 76.3857L47.4943 95.1209C44.4032 96.9029 40.5968 96.9029 37.5057 95.1209L5.00571 76.3856C1.90848 74.6002 0 71.2971 0 67.7221V30.2779C0 26.7029 1.90848 23.3998 5.00572 21.6144L37.5057 2.87905Z" fill="#FF8502"/>
<g filter="url(#filter0_i_482_989)">
<path fill-rule="evenodd" clip-rule="evenodd" d="M29.4197 21.5731C28.7178 20.7851 27.9004 20.1906 27.0169 19.8257C26.1334 19.4608 25.2022 19.3331 24.2796 19.4503C29.8623 25.3776 23.2508 33.0332 19.5782 24.1215C18.0709 28.5281 19.642 32.5868 22.7683 34.6733C24.2437 35.6595 25.0213 36.2304 25.5596 37.0245C25.8631 37.4792 26.1131 37.9899 26.3013 38.5401L27.693 42.8272H21.8352C21.7134 42.8279 21.5928 42.8599 21.4805 42.9214C21.3682 42.9828 21.2664 43.0726 21.1808 43.1854C21.0952 43.2983 21.0276 43.432 20.9818 43.579C20.936 43.7259 20.913 43.8832 20.9141 44.0418V65.27C20.9193 67.5832 21.6277 69.7998 22.8844 71.4355C24.1411 73.0712 25.844 73.9932 27.6213 74H57.5963C59.3735 73.9932 61.0765 73.0712 62.3332 71.4355C63.5899 69.7998 64.2982 67.5832 64.3035 65.27V44.0418C64.3035 43.7224 64.206 43.4161 64.0325 43.1903C63.859 42.9645 63.6237 42.8376 63.3783 42.8376H54.446L59.6579 31.419L55.9215 28.6163L49.3897 42.8376H45.2346V41.3532C45.2346 41.2874 45.2178 41.2235 45.1868 41.1715C44.9874 40.8601 44.8359 40.6525 44.7083 40.4397C44.4132 39.9934 44.2616 39.7702 44.2616 39.6248C44.2616 39.4795 44.4052 39.2356 44.6963 38.7685C44.8159 38.5764 44.9595 38.348 45.1269 38.0626C45.1603 38.0099 45.1786 37.9439 45.1788 37.8757V36.2304C45.1788 36.1547 45.1557 36.0821 45.1146 36.0286C45.0734 35.975 45.0176 35.9449 44.9595 35.9449H43.0255L43.0614 24.4796L44.2257 21.8274C44.3453 21.5879 44.409 21.3085 44.4092 21.0229V18.4278C44.4008 18.0391 44.2744 17.6706 44.0576 17.403C43.8409 17.1355 43.5514 16.9907 43.2528 17.0005H40.5332C40.385 17.0032 40.2387 17.0439 40.1025 17.1202C39.9664 17.1965 39.8432 17.307 39.7399 17.4453C39.6366 17.5836 39.5552 17.7471 39.5004 17.9264C39.4457 18.1056 39.4185 18.2972 39.4207 18.4901L39.4526 21.3655C39.4552 21.6617 39.5276 21.9497 39.6599 22.1907L40.7485 24.2201L40.7126 35.9657H38.4237C38.3946 35.9657 38.3658 35.9733 38.3389 35.9879C38.312 36.0026 38.2877 36.0241 38.2672 36.0511C38.2468 36.0782 38.2307 36.1103 38.22 36.1455C38.2092 36.1808 38.2039 36.2184 38.2044 36.2564V37.8653C38.2047 37.9345 38.2246 38.001 38.2603 38.0522C38.4477 38.3221 38.6072 38.5712 38.7467 38.7373C39.1455 39.2927 39.3369 39.5626 39.3409 39.7754C39.3449 39.9882 39.1774 40.2217 38.8664 40.7356C38.7109 40.9899 38.5194 41.3065 38.2922 41.701C38.2589 41.7513 38.2418 41.8163 38.2443 41.8826V42.848H33.0325L30.8393 36.1474C30.6147 35.5253 30.4654 34.8617 30.3966 34.1803C30.3674 33.5279 30.4049 32.8734 30.5083 32.2339C31.0387 28.1959 32.1034 24.8378 29.4197 21.5835V21.5731ZM22.7603 50.187H62.4652V45.2407H22.7603V50.187ZM62.4652 52.5901H56.9343V56.6334C56.9344 57.0662 56.8034 57.4815 56.5697 57.7895C56.3361 58.0975 56.0187 58.2732 55.6862 58.2787H51.244C50.909 58.2773 50.5881 58.1035 50.3513 57.7953C50.1145 57.487 49.981 57.0693 49.9799 56.6334V52.5901H35.6763V56.6334C35.6752 57.0693 35.5417 57.487 35.3049 57.7953C35.068 58.1035 34.7471 58.2773 34.4122 58.2787H29.9859C29.6503 58.2787 29.3284 58.1055 29.0907 57.7971C28.853 57.4887 28.7189 57.0702 28.7179 56.6334V52.5901H22.7603V65.27C22.7645 66.9468 23.2779 68.5534 24.1885 69.7396C25.099 70.9258 26.333 71.5953 27.6213 71.6021H57.5963C58.8859 71.598 60.1219 70.9297 61.0342 69.7432C61.9465 68.5568 62.461 66.9486 62.4652 65.27V52.5901ZM49.0229 26.7737C49.6569 26.1607 50.3739 25.7082 51.1363 25.4398C51.6554 25.2354 52.2008 25.1691 52.7399 25.2449C53.2791 25.3207 53.801 25.5371 54.2746 25.881L62.4014 31.9796L61.9109 33.0903L65.0013 35.4311L68 28.6838L64.9136 26.3429L64.3553 27.5679L56.2764 21.5056C55.8095 21.1114 55.2861 20.8447 54.7378 20.7216C54.1894 20.5985 53.6276 20.6215 53.0863 20.7894C51.3955 21.3811 50.0357 23.3845 49.0069 26.7737H49.0229Z" fill="white"/>
</g>
<defs>
<filter id="filter0_i_482_989" x="19" y="17" width="49.1" height="57.7" filterUnits="userSpaceOnUse" color-interpolation-filters="sRGB">
<feFlood flood-opacity="0" result="BackgroundImageFix"/>
<feBlend mode="normal" in="SourceGraphic" in2="BackgroundImageFix" result="shape"/>
<feColorMatrix in="SourceAlpha" type="matrix" values="0 0 0 0 0 0 0 0 0 0 0 0 0 0 0 0 0 0 127 0" result="hardAlpha"/>
<feOffset dx="0.1" dy="0.7"/>
<feGaussianBlur stdDeviation="0.55"/>
<feComposite in2="hardAlpha" operator="arithmetic" k2="-1" k3="1"/>
<feColorMatrix type="matrix" values="0 0 0 0 0 0 0 0 0 0 0 0 0 0 0 0 0 0 0.7 0"/>
<feBlend mode="normal" in2="shape" result="effect1_innerShadow_482_989"/>
</filter>
</defs>
</svg>

<svg xmlns="http://www.w3.org/2000/svg" fill="none" viewBox="0 0 85 98">
  <path fill="#ff8502" d="M37.506 2.879a10 10 0 0 1 9.988 0l32.5 18.735A10 10 0 0 1 85 30.278v37.444a10 10 0 0 1-5.006 8.664l-32.5 18.735a10 10 0 0 1-9.988 0l-32.5-18.735A10 10 0 0 1 0 67.722V30.278a10 10 0 0 1 5.006-8.664z"/>
  <g filter="url(#a)">
    <path fill="#fff" fill-rule="evenodd" d="M29.42 21.573c-.702-.788-1.52-1.382-2.403-1.747a5.36 5.36 0 0 0-2.737-.376c5.582 5.928-1.03 13.583-4.702 4.672-1.507 4.406.064 8.465 3.19 10.551 1.476.986 2.253 1.557 2.792 2.352.303.454.553.965.741 1.515l1.392 4.287h-5.858a.75.75 0 0 0-.355.094 1 1 0 0 0-.3.264 1.3 1.3 0 0 0-.198.394 1.5 1.5 0 0 0-.068.463V65.27c.005 2.313.714 4.53 1.97 6.166 1.257 1.635 2.96 2.557 4.737 2.564h29.975c1.778-.007 3.48-.929 4.737-2.564s1.965-3.853 1.97-6.166V44.042c0-.32-.097-.626-.27-.852s-.41-.352-.655-.352h-8.932l5.212-11.419-3.736-2.803-6.532 14.222h-4.155v-1.485a.36.36 0 0 0-.048-.181c-.2-.312-.351-.52-.479-.732-.295-.447-.446-.67-.446-.815s.143-.39.434-.856c.12-.193.264-.421.43-.706a.35.35 0 0 0 .053-.187V36.23a.33.33 0 0 0-.064-.201.2.2 0 0 0-.156-.084h-1.934l.036-11.465 1.165-2.653c.12-.24.183-.519.183-.804v-2.595a1.7 1.7 0 0 0-.351-1.025c-.217-.267-.507-.412-.805-.402h-2.72a.9.9 0 0 0-.43.12q-.207.116-.363.324a1.6 1.6 0 0 0-.24.481c-.054.18-.081.371-.08.564l.033 2.876c.002.296.075.584.207.825l1.089 2.03-.036 11.745h-2.29a.2.2 0 0 0-.084.022.2.2 0 0 0-.072.063.3.3 0 0 0-.047.094.4.4 0 0 0-.016.111v1.61c0 .069.02.135.056.186.188.27.347.52.487.685.398.556.59.826.594 1.038s-.164.447-.475.96a46 46 0 0 0-.574.966.3.3 0 0 0-.048.182v.965h-5.212l-2.193-6.7a8.2 8.2 0 0 1-.442-1.968 9.5 9.5 0 0 1 .111-1.946c.53-4.038 1.595-7.396-1.088-10.65zm-6.66 28.614h39.705v-4.946H22.76zm39.705 2.403h-5.53v4.043c0 .433-.132.848-.365 1.156-.234.308-.551.484-.884.49h-4.442c-.335-.002-.656-.176-.893-.484a1.93 1.93 0 0 1-.371-1.162V52.59H35.676v4.043a1.93 1.93 0 0 1-.371 1.162c-.237.308-.558.482-.893.484h-4.426c-.336 0-.658-.174-.895-.482a1.93 1.93 0 0 1-.373-1.164V52.59H22.76v12.68c.005 1.677.518 3.283 1.428 4.47.911 1.186 2.145 1.855 3.433 1.862h29.975c1.29-.004 2.526-.672 3.438-1.859s1.427-2.794 1.431-4.473zM49.023 26.774a5.85 5.85 0 0 1 2.113-1.334 3.15 3.15 0 0 1 1.604-.195c.54.076 1.061.292 1.535.636L62.4 31.98l-.49 1.11L65 35.431l3-6.747-3.086-2.341-.559 1.225-8.079-6.062a3.6 3.6 0 0 0-1.538-.784 3.2 3.2 0 0 0-1.652.067c-1.69.592-3.05 2.595-4.08 5.985z" clip-rule="evenodd"/>
  </g>
  <defs>
    <filter id="a" width="49.1" height="57.7" x="19" y="17" color-interpolation-filters="sRGB" filterUnits="userSpaceOnUse">
      <feFlood flood-opacity="0" result="BackgroundImageFix"/>
      <feBlend in="SourceGraphic" in2="BackgroundImageFix" mode="normal" result="shape"/>
      <feColorMatrix in="SourceAlpha" result="hardAlpha" type="matrix" values="0 0 0 0 0 0 0 0 0 0 0 0 0 0 0 0 0 0 127 0"/>
      <feOffset dx=".1" dy=".7"/>
      <feGaussianBlur stdDeviation=".55"/>
      <feComposite in2="hardAlpha" k2="-1" k3="1" operator="arithmetic"/>
      <feColorMatrix type="matrix" values="0 0 0 0 0 0 0 0 0 0 0 0 0 0 0 0 0 0 0.7 0"/>
      <feBlend in2="shape" mode="normal" result="effect1_innerShadow_482_989"/>
    </filter>
  </defs>
</svg>
